material/.icons/material/scanner.svg

<svg xmlns="http://www.w3.org/2000/svg" viewBox="0 0 24 24"><path d="M4.2 10.7L19.8 5l.7 1.9L6.4 12H19a2 2 0 012 2v4a2 2 0 01-2 2H5a2 2 0 01-2-2v-5.5c0-.8.5-1.6 1.2-1.8M17 17h2v-2h-2v2M5 17h10v-2H5v2z"/></svg>

<?xml version="1.0" encoding="UTF-8"?><!DOCTYPE svg PUBLIC "-//W3C//DTD SVG 1.1//EN" "http://www.w3.org/Graphics/SVG/1.1/DTD/svg11.dtd"><svg xmlns="http://www.w3.org/2000/svg" xmlns:xlink="http://www.w3.org/1999/xlink" version="1.1" id="mdi-scanner" width="24" height="24" viewBox="0 0 24 24"><path d="M4.2,10.7L19.8,5L20.5,6.9L6.4,12H19A2,2 0 0,1 21,14V18A2,2 0 0,1 19,20H5A2,2 0 0,1 3,18V12.5C3,11.7 3.5,10.9 4.2,10.7M17,17H19V15H17V17M5,17H15V15H5V17Z" /></svg>
